lib/brands/icons/adobe-incopy.svg

<svg xmlns="http://www.w3.org/2000/svg" fill="none" aria-hidden="true" viewBox="0 0 48 48"><g id="adobe-incopy-Icon"><g id="Group"><path id="bg" fill="#49021F" d="M6 19.0286C6 14.4681 6 12.1879 6.88752 10.4461C7.6682 8.9139 8.9139 7.6682 10.4461 6.88752C12.1879 6 14.4681 6 19.0286 6H28.9714C33.5319 6 35.8121 6 37.5539 6.88752C39.0861 7.6682 40.3318 8.9139 41.1125 10.4461C42 12.1879 42 14.4681 42 19.0286V28.9714C42 33.5319 42 35.8121 41.1125 37.5539C40.3318 39.0861 39.0861 40.3318 37.5539 41.1125C35.8121 42 33.5319 42 28.9714 42H19.0286C14.4681 42 12.1879 42 10.4461 41.1125C8.9139 40.3318 7.6682 39.0861 6.88752 37.5539C6 35.8121 6 33.5319 6 28.9714V19.0286Z"/><g id="Vector"><path fill="#FF3366" d="M19.7476 16.4885V32.4965C19.7476 32.6641 19.6723 32.7479 19.5218 32.7478H16.4863C16.3523 32.7478 16.2854 32.664 16.2856 32.4965V16.4885C16.2856 16.3546 16.3609 16.2876 16.5114 16.2875H19.5469C19.662 16.2711 19.7639 16.3732 19.7476 16.4885Z"/><path fill="#FF3366" d="M31.714 29.8075V32.3959C31.716 32.4415 31.7053 32.4868 31.6832 32.5267C31.6611 32.5667 31.6283 32.5997 31.5886 32.6221C31.1611 32.7827 30.7138 32.8841 30.259 32.9236C29.7573 32.9739 29.2723 32.999 28.8039 32.999C27.8542 33.0142 26.9099 32.8523 26.0193 32.5215C25.2348 32.2265 24.5242 31.7634 23.9371 31.1645C23.3648 30.5728 22.9169 29.8721 22.6201 29.1038C22.3065 28.2948 22.149 27.4335 22.1559 26.5657C22.1329 25.3796 22.4367 24.21 23.034 23.1856C23.6279 22.1973 24.4831 21.3928 25.5051 20.8611C26.5669 20.2917 27.8087 20.0069 29.2304 20.0067C29.7253 19.9976 30.2201 20.027 30.7105 20.0946C30.9985 20.1393 31.2834 20.2023 31.5635 20.2831C31.6513 20.3439 31.7009 20.4533 31.6889 20.5595L31.6638 23.148C31.6638 23.2988 31.5969 23.3574 31.4631 23.3239C31.1864 23.2251 30.9007 23.1536 30.6102 23.1103C30.1951 23.047 29.7756 23.0176 29.3558 23.0223C27.2909 22.9909 25.718 24.331 25.7182 26.44C25.7182 28.6362 27.3572 29.8773 29.4562 29.8829C29.8585 29.8847 30.2605 29.8637 30.6604 29.82C30.9494 29.794 31.2351 29.7393 31.5133 29.6567C31.6469 29.6233 31.7138 29.6736 31.714 29.8075Z"/></g></g></g></svg>

<svg xmlns="http://www.w3.org/2000/svg" fill="none" aria-hidden="true" viewBox="0 0 48 48"><path fill="#49021F" d="M6 19.029c0-4.56 0-6.841.888-8.583a8.143 8.143 0 0 1 3.558-3.558C12.188 6 14.468 6 19.03 6h9.942c4.56 0 6.841 0 8.583.888a8.143 8.143 0 0 1 3.558 3.558C42 12.188 42 14.468 42 19.03v9.942c0 4.56 0 6.841-.888 8.583a8.143 8.143 0 0 1-3.558 3.558C35.812 42 33.532 42 28.97 42h-9.94c-4.56 0-6.841 0-8.583-.888a8.143 8.143 0 0 1-3.558-3.558C6 35.812 6 33.532 6 28.97v-9.94Z"/><path fill="#F36" d="M19.748 16.488v16.008c0 .168-.076.252-.226.252h-3.036c-.134 0-.2-.084-.2-.252V16.488c0-.133.075-.2.226-.2h3.035a.18.18 0 0 1 .2.2Zm11.966 13.32v2.588a.248.248 0 0 1-.125.226c-.428.16-.875.262-1.33.302-.502.05-.987.075-1.455.075a7.646 7.646 0 0 1-2.785-.477 5.75 5.75 0 0 1-2.082-1.357 6.155 6.155 0 0 1-1.317-2.061 6.87 6.87 0 0 1-.464-2.538 6.462 6.462 0 0 1 .878-3.38 6.247 6.247 0 0 1 2.471-2.325c1.062-.57 2.304-.854 3.726-.854.494-.01.99.02 1.48.088.288.044.573.107.853.188a.3.3 0 0 1 .125.276l-.025 2.589c0 .15-.067.21-.2.176a4.517 4.517 0 0 0-.854-.214 7.744 7.744 0 0 0-1.254-.088c-2.065-.031-3.638 1.309-3.638 3.418 0 2.196 1.64 3.437 3.738 3.443.403.002.805-.02 1.204-.063.29-.026.575-.08.854-.163.133-.034.2.017.2.15Z"/></svg>
